shared/images/iconfont/kb-iconfont-notifications-mobile-16.svg

<?xml version="1.0" encoding="UTF-8"?>
<svg width="16px" height="16px" viewBox="0 0 16 16" version="1.1" xmlns="http://www.w3.org/2000/svg" xmlns:xlink="http://www.w3.org/1999/xlink">
    <!-- Generator: sketchtool 49.2 (51160) - http://www.bohemiancoding.com/sketch -->
    <title>FB05A290-29D0-4D4C-B5A2-1C7178804A97</title>
    <desc>Created with sketchtool.</desc>
    <defs></defs>
    <g id="Colors,-icons" stroke="none" stroke-width="1" fill="none" fill-rule="evenodd">
        <g id="Icons-2" transform="translate(-519.000000, -218.000000)">
            <g id="kb-iconfont-notifications-mobile-16" transform="translate(519.000000, 218.000000)">
                <rect id="icon-area" opacity="0" x="0" y="0" width="16" height="16"></rect>
                <path d="M14.6666667,5.33333333 C14.6666667,5.70152317 14.9651435,6 15.3333333,6 C15.7015232,6 16,5.70152317 16,5.33333333 C15.9966311,2.38921125 13.6107888,0.00336891084 10.6666667,0 C10.2984768,0 10,0.298476833 10,0.666666667 C10,1.0348565 10.2984768,1.33333333 10.6666667,1.33333333 C12.874805,1.33574728 14.6642527,3.125195 14.6666667,5.33333333 Z M1.33333333,10.6666667 C1.33333333,10.2984768 1.0348565,10 0.666666667,10 C0.298476833,10 0,10.2984768 0,10.6666667 C0.00336891084,13.6107888 2.38921125,15.9966311 5.33333333,16 C5.70152317,16 6,15.7015232 6,15.3333333 C6,14.9651435 5.70152317,14.6666667 5.33333333,14.6666667 C3.125195,14.6642527 1.33574728,12.874805 1.33333333,10.6666667 Z M7.05729333,0.45752 C6.53653382,-0.0631543295 5.69230618,-0.0631543295 5.17154667,0.45752 L0.457546667,5.17152 C-0.0631258713,5.69224901 -0.0631258713,6.53645765 0.457546667,7.05718667 L8.94288,15.5424533 C9.4635747,16.063127 10.3077653,16.063127 10.82846,15.5424533 L15.54246,10.8284533 C16.0631325,10.3077243 16.0631325,9.46351568 15.54246,8.94278667 L7.05729333,0.45752 Z M9.80525364,13.3344088 L2.6203276,6.35499011 L6.49348561,2.53183565 L13.678245,9.5112543 L9.80525364,13.3344088 Z" id="shake" fill="#000000" fill-rule="nonzero"></path>
            </g>
        </g>
    </g>
</svg>

<svg xmlns="http://www.w3.org/2000/svg" width="16" height="16" viewBox="0 0 16 16">
    <path fill="#000" fill-rule="nonzero" d="M14.667 5.333a.667.667 0 1 0 1.333 0A5.34 5.34 0 0 0 10.667 0a.667.667 0 1 0 0 1.333 4.004 4.004 0 0 1 4 4zM1.333 10.667a.667.667 0 1 0-1.333 0A5.34 5.34 0 0 0 5.333 16a.667.667 0 1 0 0-1.333 4.004 4.004 0 0 1-4-4zM7.057.457a1.334 1.334 0 0 0-1.885 0L.458 5.173c-.521.52-.521 1.364 0 1.885l8.485 8.485c.52.521 1.365.521 1.885 0l4.714-4.714c.521-.52.521-1.364 0-1.885L7.057.458zm2.748 12.877L2.62 6.355l3.873-3.823 7.185 6.98-3.873 3.822z"/>
</svg>
